X:3025
T:Auld lang syne
C:anon.
O:Scotland
Z:Transcribed by Frank Nordberg - http://www.musicaviva.com
F:http://abc.musicaviva.com/tunes/scotland/auld-lang-syne.abc
M:C
L:1/4
K:F
C|"F"F>FFA|"C"C>FCA|"F"F>FAc|"Bb"d3d|
"F"c>AAF|"C"G>FG"F"A|"Bb"F>DD"C"C|"F"F3"Bb"d|
"F"c>AAF|"C"G>FGd|"F"c>AAc|"Bb"d3d|
"F"c>AAF|"C"G>FG"F"A|"Bb"F>DD"C"C|"F"F3"Bb"|]
W:
W:
W:  From Musica Viva - http://www.musicaviva.com
W:  the Internet center for free sheet music downloads.
